X: 4130
T: THRO' THE WOOD OF FYVIE
R: Reel.
%R: reel
B: James Kerr "Merry Melodies" v.4 p.16 #130
Z: 2016 John Chambers <jc:trillian.mit.edu>
M: C|
L: 1/8
K: G
e |\
dGBG ABce | dGBG dGBG |\
ceBd ABce | dBgB d3 :|\
e |\
dBgB ABce | dBgB bBgB |
dBgB ABce | dBgB d3e |\
dBgB ABce | dBgB b/a/g/f/ ge |\
dgBg ABce | dBgB d3 |]

%%sep 1 1 500
%%sep 1 1 500

